rospo-icon-theme-classic-common/22x22/apps/stride.svg

<svg height="22" viewBox="0 0 22 22" width="22" xmlns="http://www.w3.org/2000/svg"><g fill-rule="evenodd"><path d="m7.7902315 2.4999987c-.426602.0000423-.77242.3422724-.772463.7644475 0 3.468644-1.1473904 5.7818936-1.8114654 6.7950538-.3762945.574101-.663786.877697-1.1164506 1.092921-.4526641.215224-1.1478979.34863-2.3173894.34863-.4266021.000042-.7724207.342273-.7724631.764448v6.470053c.0000427.422175.3458612.764406.7724631.764448 4.2123465 0 8.0349289-1.846001 10.1302809-5.042816 2.057708-3.139383 2.597256-6.9478747 2.597256-11.1927378-.000043-.4221753-.345861-.7644055-.772463-.7644475z" opacity=".2"/><path d="m7.7902315 1.9999995c-.426602.0000423-.77242.3422724-.772463.7644475 0 3.468644-1.1473904 5.7818936-1.8114654 6.7950528-.3762945.5741012-.663786.8776972-1.1164506 1.0929212-.4526641.215224-1.1478979.34863-2.3173894.34863-.4266021.000042-.7724207.342273-.7724631.764448v6.470053c.0000427.422175.3458612.764406.7724631.764448 4.2123465 0 8.0349289-1.846001 10.1302809-5.042816 2.057708-3.139383 2.597256-6.9478739 2.597256-11.192737-.000043-.4221753-.345861-.7644055-.772463-.7644475z" fill="#115ccc"/><path d="m7.7910156 1.9999998c-.426602.0000423-.7733945.3414968-.7734375.7636719 0 3.468644-1.1464718 5.7817626-1.8105469 6.7949221-.3762945.5741012-.6645228.8785262-1.1171874 1.0937502-.4526641.215224-1.1469148.349609-2.3164063.349609-.4266021.000042-.7733951.341497-.7734375.763672v.5c.0000424-.422175.3468354-.76363.7734375-.763672 1.1694915 0 1.8637422-.134385 2.3164063-.349609.4526646-.215224.7408929-.519649 1.1171874-1.09375.6640751-1.0131602 1.8105469-3.3262783 1.8105469-6.7949223.000043-.4221751.3468355-.7636296.7734375-.7636719h5.9355464c.41258.0000406.743877.3216674.765626.7246094.001497-.1543725.007812-.3053816.007812-.4609375-.000043-.4221753-.346835-.7636299-.773438-.7636719z" fill="#fff" opacity=".1"/></g><path d="m7.780736 2.499999c-.5760877.0002541-.9534846.606791-.7020915 1.1283728l6.9336985 15.4290232c.130632.270879.403635.442796.702853.442605h6.504828c.575558-.000528.952691-.60623.702091-1.127606l-7.434088-15.4297906c-.130513-.27063-.403149-.4425019-.702092-.4426044z" opacity=".2"/><path d="m7.780736 1.9999998c-.5760877.0002541-.9534846.606791-.7020915 1.1283728l6.9336985 15.4290224c.130632.270879.403635.442796.702853.442605h6.504828c.575558-.000528.952691-.60623.702091-1.127606l-7.434088-15.4297898c-.130513-.27063-.403149-.4425019-.702092-.4426044z" fill="#3387f5"/><path d="m7.78125 1.9999998c-.552084.0002435-.9160275.5570162-.7246094 1.0625.0963085-.3107629.3598941-.5623391.7246094-.5625h6.003906c.298943.0001025.572612.1727294.703125.4433594l7.433594 15.4296878c.0105.02185.01316.04431.02148.06641.05657-.180466.07082-.374365-.02148-.566406l-7.433594-15.4296918c-.130513-.27063-.404182-.4432569-.703125-.4433594z" fill="#fff" opacity=".2"/></svg>

<svg xmlns="http://www.w3.org/2000/svg" width="22" height="22" version="1.1" viewBox="0 0 22 22">
 <path d="m 7.7902315,2.4999987 c -0.426602,4.23e-5 -0.77242,0.3422724 -0.772463,0.7644475 0,3.468644 -1.1473904,5.7818936 -1.8114654,6.7950538 -0.3762945,0.574101 -0.663786,0.877697 -1.1164506,1.092921 -0.4526641,0.215224 -1.1478979,0.34863 -2.3173894,0.34863 C 1.345861,11.501093 1.0000424,11.843324 1,12.265499 l 0,6.470053 C 1.0000427,19.157727 1.3458612,19.499958 1.7724631,19.5 5.9848096,19.5 9.807392,17.653999 11.902744,14.457184 13.960452,11.317801 14.5,7.5093093 14.5,3.2644462 14.499957,2.8422709 14.154139,2.5000407 13.727537,2.4999987 Z" style="opacity:0.2;fill-rule:evenodd"/>
 <path style="fill:#115ccc;fill-rule:evenodd" d="m 7.7902315,1.9999995 c -0.426602,4.23e-5 -0.77242,0.3422724 -0.772463,0.7644475 0,3.468644 -1.1473904,5.7818936 -1.8114654,6.7950528 C 4.8300086,10.133601 4.5425171,10.437197 4.0898525,10.652421 3.6371884,10.867645 2.9419546,11.001051 1.7724631,11.001051 1.345861,11.001093 1.0000424,11.343324 1,11.765499 l 0,6.470053 C 1.0000427,18.657727 1.3458612,18.999958 1.7724631,19 5.9848096,19 9.807392,17.153999 11.902744,13.957184 13.960452,10.817801 14.5,7.0093101 14.5,2.764447 14.499957,2.3422717 14.154139,2.0000415 13.727537,1.9999995 Z"/>
 <path style="opacity:0.1;fill:#ffffff;fill-rule:evenodd" d="m 7.7910156,1.9999998 c -0.426602,4.23e-5 -0.7733945,0.3414968 -0.7734375,0.7636719 0,3.468644 -1.1464718,5.7817626 -1.8105469,6.7949221 C 4.8307367,10.132695 4.5425084,10.43712 4.0898438,10.652344 3.6371797,10.867568 2.942929,11.001953 1.7734375,11.001953 1.3468354,11.001995 1.0000424,11.34345 1,11.765625 l 0,0.5 c 4.24e-5,-0.422175 0.3468354,-0.76363 0.7734375,-0.763672 1.1694915,0 1.8637422,-0.134385 2.3164063,-0.349609 C 4.5425084,10.93712 4.8307367,10.632695 5.2070312,10.058594 5.8711063,9.0454338 7.0175781,6.7323157 7.0175781,3.2636717 7.0176211,2.8414966 7.3644136,2.5000421 7.7910156,2.4999998 l 5.9355464,0 c 0.41258,4.06e-5 0.743877,0.3216674 0.765626,0.7246094 C 14.493685,3.0702367 14.5,2.9192276 14.5,2.7636717 14.499957,2.3414964 14.153165,2.0000418 13.726562,1.9999998 l -5.9355464,0 z"/>
 <path d="M 7.780736,2.499999 C 7.2046483,2.5002531 6.8272514,3.10679 7.0786445,3.6283718 L 14.012343,19.057395 c 0.130632,0.270879 0.403635,0.442796 0.702853,0.442605 l 6.504828,0 c 0.575558,-5.28e-4 0.952691,-0.60623 0.702091,-1.127606 L 14.488027,2.9426034 C 14.357514,2.6719734 14.084878,2.5001015 13.785935,2.499999 Z" style="opacity:0.2"/>
 <path style="fill:#3387f5" d="M 7.780736,1.9999998 C 7.2046483,2.0002539 6.8272514,2.6067908 7.0786445,3.1283726 L 14.012343,18.557395 C 14.142975,18.828274 14.415978,19.000191 14.715196,19 l 6.504828,0 c 0.575558,-5.28e-4 0.952691,-0.60623 0.702091,-1.127606 L 14.488027,2.4426042 C 14.357514,2.1719742 14.084878,2.0001023 13.785935,1.9999998 Z"/>
 <path style="opacity:0.2;fill:#ffffff" d="M 7.78125,1.9999998 C 7.229166,2.0002433 6.8652225,2.557016 7.0566406,3.0624998 7.1529491,2.7517369 7.4165347,2.5001607 7.78125,2.4999998 l 6.003906,0 c 0.298943,1.025e-4 0.572612,0.1727294 0.703125,0.4433594 l 7.433594,15.4296878 c 0.0105,0.02185 0.01316,0.04431 0.02148,0.06641 0.05657,-0.180466 0.07082,-0.374365 -0.02148,-0.566406 L 14.488281,2.4433592 C 14.357768,2.1727292 14.084099,2.0001023 13.785156,1.9999998 l -6.003906,0 z"/>
</svg>
